X: 4420
T: Bonney Miller, The
R: three-two
M: 3/2
K: Bminor
|:ABBg f2|GBBe cA|GBBg f2|eAAe cB/A/:|
|:fg/a/ fdge|f/g/a fdeA|f/g/a fdgf|eAAe c/B/A:|
|:dB fBaB|fBBe d/c/B|dB fBaB|eAAe d/c/B:|

